new-icons/folder-pytorch-open.svg

<?xml version="1.0" encoding="UTF-8" standalone="no"?>
<svg
   viewBox="0 0 32 32"
   version="1.1"
   id="svg5"
   xml:space="preserve"
   xmlns="http://www.w3.org/2000/svg"
   xmlns:svg="http://www.w3.org/2000/svg"><defs
     id="defs5" /><path
     fill="#757575"
     d="M 28.966526,11.999895 H 9.4418693 A 1.9999649,1.9999649 0 0 0 7.5439027,13.367871 L 3.9999649,23.999684 V 9.9999298 H 27.999543 A 1.9999649,1.9999649 0 0 0 25.999579,7.9999649 H 15.12377 A 1.9999649,1.9999649 0 0 1 13.843792,7.535973 L 12.555815,6.4639919 A 1.9999649,1.9999649 0 0 0 11.275837,6 H 3.9999649 A 1.9999649,1.9999649 0 0 0 2,7.9999649 V 23.999684 a 1.9999649,1.9999649 0 0 0 1.9999649,1.999965 H 25.999579 l 4.804915,-11.211803 a 1.9999649,1.9999649 0 0 0 -1.837968,-2.787951"
     id="path1"
     style="stroke-width:0.999982" /><path
     fill="#dd2c00"
     d="m 22.131745,28.995132 c -0.02433,-0.0019 -0.12895,-0.0098 -0.233082,-0.0146 -0.669953,-0.04866 -1.37616,-0.202911 -2.037501,-0.451563 -1.576591,-0.592146 -2.920003,-1.71289 -3.794717,-3.16564 -0.5848,-0.971258 -0.947124,-2.091174 -1.03661,-3.20408 -0.03894,-0.461785 -0.03894,-0.752968 -0.0048,-1.202393 0.06424,-0.865277 0.274445,-1.694933 0.628885,-2.484738 0.311913,-0.695256 0.704114,-1.301319 1.23558,-1.909864 0.05061,-0.05792 1.319325,-1.33334 2.819081,-2.833921 L 22.435462,11 v 1.306819 1.30677 l -2.093069,2.094822 c -2.11706,2.118813 -2.166889,2.169955 -2.374328,2.438023 -0.664115,0.85827 -1.061132,1.914585 -1.129645,3.005595 -0.0098,0.185396 -0.0098,0.527575 -2.44e-4,0.70864 0.06715,1.057822 0.431616,2.067425 1.057532,2.93202 0.385875,0.53312 0.912963,1.041572 1.450609,1.399809 0.768054,0.511711 1.603014,0.807856 2.543518,0.902208 0.255466,0.02433 0.738517,0.02921 0.994518,0.0042 0.988874,-0.091 1.912298,-0.424316 2.705994,-0.977243 0.292934,-0.204372 0.510786,-0.388308 0.793065,-0.669952 0.292935,-0.292449 0.485628,-0.522758 0.692775,-0.8281 0.445241,-0.656427 0.742165,-1.408324 0.873305,-2.212971 0.08904,-0.547474 0.08904,-1.187454 -5.36e-4,-1.746996 -0.179069,-1.118651 -0.68173,-2.138424 -1.463748,-2.969248 -0.05644,-0.05986 -0.103646,-0.111431 -0.104625,-0.114355 -0.0012,-0.003 0.298287,-0.306073 0.665088,-0.672824 l 0.667278,-0.667231 0.107054,0.110948 c 0.177124,0.183447 0.40096,0.444754 0.562171,0.656084 0.675356,0.886687 1.143128,1.912201 1.366916,2.996739 0.205345,0.994615 0.205345,2.029131 1.46e-4,3.027591 -0.09245,0.450592 -0.235516,0.911892 -0.424805,1.368568 -0.555893,1.343071 -1.567053,2.56741 -2.796453,3.385876 -1.029456,0.685377 -2.222313,1.097189 -3.463245,1.195726 -0.164471,0.0146 -0.824012,0.02433 -0.932865,0.0146 z m 2.822926,-13.099814 c -0.247195,-0.03407 -0.492394,-0.176637 -0.645818,-0.38101 -0.06667,-0.08905 -0.131383,-0.221405 -0.162039,-0.331375 -0.0292,-0.113866 -0.03894,-0.312887 -0.01946,-0.422859 0.03894,-0.20048 0.119711,-0.357165 0.252061,-0.496236 0.125543,-0.132356 0.28077,-0.22481 0.4613,-0.274931 0.08175,-0.02433 0.09975,-0.02433 0.246219,-0.02433 0.145007,2.93e-4 0.165931,0.0025 0.245734,0.02433 0.604847,0.166906 0.900264,0.834232 0.615114,1.389298 -0.185883,0.362032 -0.586648,0.570006 -0.995101,0.516918 z"
     id="path1-7"
     style="stroke-width:4.86602" /></svg>

<svg xmlns="http://www.w3.org/2000/svg" viewBox="0 0 32 32">
  <path fill="#757575"
    d="M28.967 12H9.442a2 2 0 0 0-1.898 1.368L4 24V10h24a2 2 0 0 0-2-2H15.124a2 2 0 0 1-1.28-.464l-1.288-1.072A2 2 0 0 0 11.276 6H4a2 2 0 0 0-2 2v16a2 2 0 0 0 2 2h22l4.805-11.212A2 2 0 0 0 28.967 12" />
  <g data-mit-no-recolor="true">
    <path fill="#dd2c00"
      d="m 22.131745,28.995132 c -0.02433,-0.0019 -0.12895,-0.0098 -0.233082,-0.0146 -0.669953,-0.04866 -1.37616,-0.202911 -2.037501,-0.451563 -1.576591,-0.592146 -2.920003,-1.71289 -3.794717,-3.16564 -0.5848,-0.971258 -0.947124,-2.091174 -1.03661,-3.20408 -0.03894,-0.461785 -0.03894,-0.752968 -0.0048,-1.202393 0.06424,-0.865277 0.274445,-1.694933 0.628885,-2.484738 0.311913,-0.695256 0.704114,-1.301319 1.23558,-1.909864 0.05061,-0.05792 1.319325,-1.33334 2.819081,-2.833921 L 22.435462,11 v 1.306819 1.30677 l -2.093069,2.094822 c -2.11706,2.118813 -2.166889,2.169955 -2.374328,2.438023 -0.664115,0.85827 -1.061132,1.914585 -1.129645,3.005595 -0.0098,0.185396 -0.0098,0.527575 -2.44e-4,0.70864 0.06715,1.057822 0.431616,2.067425 1.057532,2.93202 0.385875,0.53312 0.912963,1.041572 1.450609,1.399809 0.768054,0.511711 1.603014,0.807856 2.543518,0.902208 0.255466,0.02433 0.738517,0.02921 0.994518,0.0042 0.988874,-0.091 1.912298,-0.424316 2.705994,-0.977243 0.292934,-0.204372 0.510786,-0.388308 0.793065,-0.669952 0.292935,-0.292449 0.485628,-0.522758 0.692775,-0.8281 0.445241,-0.656427 0.742165,-1.408324 0.873305,-2.212971 0.08904,-0.547474 0.08904,-1.187454 -5.36e-4,-1.746996 -0.179069,-1.118651 -0.68173,-2.138424 -1.463748,-2.969248 -0.05644,-0.05986 -0.103646,-0.111431 -0.104625,-0.114355 -0.0012,-0.003 0.298287,-0.306073 0.665088,-0.672824 l 0.667278,-0.667231 0.107054,0.110948 c 0.177124,0.183447 0.40096,0.444754 0.562171,0.656084 0.675356,0.886687 1.143128,1.912201 1.366916,2.996739 0.205345,0.994615 0.205345,2.029131 1.46e-4,3.027591 -0.09245,0.450592 -0.235516,0.911892 -0.424805,1.368568 -0.555893,1.343071 -1.567053,2.56741 -2.796453,3.385876 -1.029456,0.685377 -2.222313,1.097189 -3.463245,1.195726 -0.164471,0.0146 -0.824012,0.02433 -0.932865,0.0146 z m 2.822926,-13.099814 c -0.247195,-0.03407 -0.492394,-0.176637 -0.645818,-0.38101 -0.06667,-0.08905 -0.131383,-0.221405 -0.162039,-0.331375 -0.0292,-0.113866 -0.03894,-0.312887 -0.01946,-0.422859 0.03894,-0.20048 0.119711,-0.357165 0.252061,-0.496236 0.125543,-0.132356 0.28077,-0.22481 0.4613,-0.274931 0.08175,-0.02433 0.09975,-0.02433 0.246219,-0.02433 0.145007,2.93e-4 0.165931,0.0025 0.245734,0.02433 0.604847,0.166906 0.900264,0.834232 0.615114,1.389298 -0.185883,0.362032 -0.586648,0.570006 -0.995101,0.516918 z"
      style="stroke-width:4.86602" />
  </g>
</svg>
